dist/svg/u1F688.svg

<?xml version="1.0" encoding="UTF-8"?><svg id="Layer_1" xmlns="http://www.w3.org/2000/svg" viewBox="0 0 40 40"><path d="M32.50176,30.61999l2.92681,4.01642c.33763,.46333,.00669,1.11399-.56661,1.11399H5.28338c-.46816,0-.84768-.37952-.84768-.84768v-4.28273h28.06606Z" style="fill:#2d67d5;"/><g style="opacity:0;"><rect y="0" width="40" height="40" transform="translate(40 40) rotate(-180)" style="fill:none;"/></g><g><path d="M30.55997,31.11045H4.43257v-11.69092h28.0379l2.41963,4.19092c1.9245,3.33333-.48112,7.5-4.33013,7.5Z" style="fill:#b3d3fc;"/><path d="M25.15867,6.74962l7.31493,12.66991H4.4357V6.24961c0-1.10457,.89543-2,2-2h14.39284c1.78633,0,3.43697,.953,4.33013,2.50001Z" style="fill:#b3d3fc;"/><path d="M25.65969,7.61741l6.81391,11.80212h-9.54329c-1.10457,0-2-.89543-2-2V9.1734c0-.85935,.69664-1.55599,1.55599-1.55599h3.17339Z" style="fill:#313d4c;"/><path d="M33.26559,23.70127h1.67218c.42523,.77051,.62231,1.58154,.62653,2.375h-2.29871c-.65576,0-1.1875-.53125-1.1875-1.1875,0-.65625,.53174-1.1875,1.1875-1.1875Z" style="fill:#fff;"/><path d="M4.43257,7.61741h12.05288c1.10383,0,2,.89617,2,2v7.80212c0,1.10383-.89617,2-2,2H4.43257V7.61741h0Z" style="fill:#313d4c;"/></g></svg>

<svg id="Layer_1" data-name="Layer 1" xmlns="http://www.w3.org/2000/svg" viewBox="0 0 40 40"><defs><style>.cls-1{fill:#2d67d5;}.cls-2{fill:none;opacity:0;}.cls-3{fill:#b3d3fc;}.cls-4{fill:#313d4c;}.cls-5{fill:#fff;}</style></defs><path class="cls-1" d="M32.5,30.62l2.927,4.016a.7.7,0,0,1-.567,1.114H5.283a.847.847,0,0,1-.847-.847V30.62Z"/><rect class="cls-2" width="40" height="40" transform="translate(40 40) rotate(-180)"/><path class="cls-3" d="M30.56,31.11H4.433V19.42H32.47l2.42,4.19A5,5,0,0,1,30.56,31.11Z"/><path class="cls-3" d="M25.159,6.75l7.315,12.67H4.436V6.25a2,2,0,0,1,2-2H20.829A5,5,0,0,1,25.159,6.75Z"/><path class="cls-4" d="M25.66,7.617l6.814,11.8H22.93a2,2,0,0,1-2-2V9.173a1.556,1.556,0,0,1,1.556-1.556Z"/><path class="cls-5" d="M33.266,23.7h1.672a4.946,4.946,0,0,1,.626,2.375h-2.3a1.188,1.188,0,1,1,0-2.375Z"/><path class="cls-4" d="M4.433,7.617H16.485a2,2,0,0,1,2,2v7.8a2,2,0,0,1-2,2H4.433a0,0,0,0,1,0,0V7.617A0,0,0,0,1,4.433,7.617Z"/></svg>
